storage/app/icons/phosphoricons/regular/cell-signal-high.svg

<svg xmlns="http://www.w3.org/2000/svg" fill="currentColor" viewBox="0 0 256 256"><path d="M168 72v128a8 8 0 0 1-16 0V72a8 8 0 0 1 16 0m-48 32a8 8 0 0 0-8 8v88a8 8 0 0 0 16 0v-88a8 8 0 0 0-8-8m-40 40a8 8 0 0 0-8 8v48a8 8 0 0 0 16 0v-48a8 8 0 0 0-8-8m-40 40a8 8 0 0 0-8 8v8a8 8 0 0 0 16 0v-8a8 8 0 0 0-8-8"/></svg>

<svg xmlns="http://www.w3.org/2000/svg" viewBox="0 0 256 256" fill="currentColor"><path d="M168,72V200a8,8,0,0,1-16,0V72a8,8,0,0,1,16,0Zm-48,32a8,8,0,0,0-8,8v88a8,8,0,0,0,16,0V112A8,8,0,0,0,120,104ZM80,144a8,8,0,0,0-8,8v48a8,8,0,0,0,16,0V152A8,8,0,0,0,80,144ZM40,184a8,8,0,0,0-8,8v8a8,8,0,0,0,16,0v-8A8,8,0,0,0,40,184Z"/></svg>
